icon/fa/heart-circle-check.svg

<svg xmlns="http://www.w3.org/2000/svg" viewBox="0 0 576 512"><!--! Font Awesome Free 6.1.2 by @fontawesome - https://fontawesome.com License - https://fontawesome.com/license/free (Icons: CC BY 4.0, Fonts: SIL OFL 1.1, Code: MIT License) Copyright 2022 Fonticons, Inc.--><path d="M256 368c0 35.7 10.6 68.9 28.9 96.6l-5.5 5.7c-13 12.9-33.9 12.9-45.9 0L39.71 270.5c-55.93-58-52.94-153.9 9.99-207.82 53.9-46.95 136.8-37.96 186.8 12.99l19.9 20.97 19-20.97c50-50.95 131.9-59.94 187.8-12.99 42.9 37.42 57.5 94.92 43.8 146.02-22.7-10.7-48.2-16.7-75-16.7-97.2 0-176 78.8-176 176zm320 0c0 79.5-64.5 144-144 144s-144-64.5-144-144 64.5-144 144-144 144 64.5 144 144zm-99.3-43.3L416 385.4l-28.7-28.7c-6.2-6.3-16.4-6.3-22.6 0-6.3 6.2-6.3 16.4 0 22.6l40 40c6.2 6.3 16.4 6.3 22.6 0l72-72c6.3-6.2 6.3-16.4 0-22.6-6.2-6.3-16.4-6.3-22.6 0z"/></svg>

<svg xmlns="http://www.w3.org/2000/svg" viewBox="0 0 576 512" height="1em" width="1em">
<!--! Font Awesome Free 6.1.2 by @fontawesome - https://fontawesome.com License - https://fontawesome.com/license/free (Icons: CC BY 4.0, Fonts: SIL OFL 1.1, Code: MIT License) Copyright 2022 Fonticons, Inc.-->
  <path d="M256 368C256 403.7 266.6 436.9 284.9 464.6L279.4 470.3C266.4 483.2 245.5 483.2 233.5 470.3L39.71 270.5C-16.22 212.5-13.23 116.6 49.7 62.68C103.6 15.73 186.5 24.72 236.5 75.67L256.4 96.64L275.4 75.67C325.4 24.72 407.3 15.73 463.2 62.68C506.1 100.1 520.7 157.6 507 208.7C484.3 198 458.8 192 432 192C334.8 192 256 270.8 256 368zM576 368C576 447.5 511.5 512 432 512C352.5 512 288 447.5 288 368C288 288.5 352.5 224 432 224C511.5 224 576 288.5 576 368zM476.7 324.7L416 385.4L387.3 356.7C381.1 350.4 370.9 350.4 364.7 356.7C358.4 362.9 358.4 373.1 364.7 379.3L404.7 419.3C410.9 425.6 421.1 425.6 427.3 419.3L499.3 347.3C505.6 341.1 505.6 330.9 499.3 324.7C493.1 318.4 482.9 318.4 476.7 324.7H476.7z"/>
</svg>
